svg/商业1.svg

<svg width="36" height="36" viewBox="0 0 36 36" fill="none" xmlns="http://www.w3.org/2000/svg"><rect x="-48" y="-9.5" width="132" height="87" rx="11.5" stroke="#FF8D28"/><rect width="36" height="36" rx="12" fill="#FD894C"/><path d="M36.1649 13.6068H30.9207V13.221C30.9207 9.98089 28.3654 7.35376 25.2138 7.35376H21.2856C18.1341 7.35376 15.5804 9.97922 15.5804 13.221V13.6068H10.3446C9.1454 13.6068 8.17505 14.6055 8.17505 15.8364V21.7855C8.17505 22.3982 8.45587 22.9771 8.93707 23.3563L10.1607 24.3207C10.5135 24.5987 10.9496 24.7499 11.3987 24.7499H19.3374C19.8268 24.7499 20.2234 24.3532 20.2234 23.8639C20.2234 23.3746 20.6201 22.9779 21.1094 22.9779H25.4401C25.9294 22.9779 26.3261 23.3746 26.3261 23.8639C26.3261 24.3532 26.7228 24.7499 27.2121 24.7499H35.6989L38.301 22.699L38.3344 22.7424V15.8347C38.3344 14.6055 37.3624 13.6068 36.1649 13.6068ZM28.2418 13.6068H18.251V13.4815C18.251 11.3704 19.9161 9.66022 21.9687 9.66022H24.5257C26.5783 9.66022 28.2434 11.3704 28.2434 13.4815V13.6068H28.2418ZM36.2735 27.0881H26.9875C26.6222 27.0881 26.3261 27.3842 26.3261 27.7495C26.3261 28.1148 26.03 28.4109 25.6647 28.4109H20.8848C20.5195 28.4109 20.2234 28.1148 20.2234 27.7495C20.2234 27.3842 19.9273 27.0881 19.5621 27.0881H10.1291L10.0128 27.0881L9.7777 26.9106C9.11889 26.413 8.17505 26.883 8.17505 27.7086V33.7687C8.17505 35.0029 9.1454 36 10.3446 36H36.1649C37.3624 36 38.3344 35.0029 38.3344 33.7687V25.6167L36.3453 27.1833L36.2735 27.0881Z" fill="#FCEA8D"/><defs><clipPath id="clip0_1970_14250"><rect width="36" height="36" rx="12" fill="white"/></clipPath></defs></svg>

<svg fill="none" viewBox="0 0 36 36"><rect width="132" height="87" x="-48" y="-9.5" stroke="#FF8D28" rx="11.5"/><rect width="36" height="36" fill="#FD894C" rx="12"/><path fill="#FCEA8D" d="M36.165 13.607H30.92v-.386c0-3.24-2.556-5.867-5.707-5.867h-3.928c-3.152 0-5.706 2.625-5.706 5.867v.386h-5.235c-1.2 0-2.17.999-2.17 2.23v5.948a2 2 0 0 0 .762 1.571l1.224.965a2 2 0 0 0 1.238.429h7.938c.49 0 .886-.397.886-.886 0-.49.397-.886.886-.886h4.331c.49 0 .886.397.886.886 0 .49.397.886.886.886H35.7l2.602-2.051.033.043v-6.907c0-1.23-.972-2.228-2.17-2.228m-7.923 0H18.25v-.125c0-2.112 1.665-3.822 3.718-3.822h2.557c2.052 0 3.717 1.71 3.717 3.822v.125zm8.031 13.481h-9.286a.66.66 0 0 0-.66.662.66.66 0 0 1-.662.66h-4.78a.66.66 0 0 1-.662-.66.66.66 0 0 0-.66-.662h-9.55l-.235-.177a1 1 0 0 0-1.603.798v6.06c0 1.234.97 2.231 2.17 2.231h25.82c1.197 0 2.17-.997 2.17-2.231v-8.152l-1.99 1.566z"/></svg>
